src/assets/img/setting.svg

<svg
  width="19"
  height="20"
  viewBox="0 0 19 20"
  fill="none"
  xmlns="http://www.w3.org/2000/svg">
  <path
    opacity="0.4"
    fill-rule="evenodd"
    clip-rule="evenodd"
    d="M13.4684 3.72984L12.7255 3.2963C12.7255 3.2963 11.9499 1.18529 11.8845 1.04241C11.6372 0.446706 10.9608 0 10.2828 0H8.42097C7.74577 0 7.07222 0.445749 6.80795 1.06812C6.75378 1.18551 5.98673 3.29574 5.98673 3.29574L5.25274 3.73208C5.25274 3.73208 3.01723 3.34267 2.86067 3.32789C2.22115 3.24416 1.49608 3.60662 1.15706 4.19382L0.22616 5.80618C-0.11144 6.39092 -0.0621848 7.1971 0.344673 7.73715C0.419296 7.84283 1.8639 9.57203 1.8639 9.57203C1.8639 9.57203 1.85186 9.85686 1.85186 10C1.85186 10.303 1.86248 10.429 1.86248 10.429C1.86248 10.429 0.419296 12.1572 0.328229 12.2853C-0.0641449 12.7973 -0.112893 13.6066 0.22616 14.1938L1.15706 15.8062C1.49462 16.3909 2.21732 16.7514 2.88838 16.6691C3.01723 16.6573 5.23083 16.2672 5.23083 16.2672L5.97602 16.6921C5.97602 16.6921 6.75378 18.8145 6.81919 18.9574C7.06642 19.5532 7.74286 20 8.42097 20H10.2828C10.9579 20 11.6314 19.5544 11.8957 18.9321C11.9499 18.8147 12.7255 16.7 12.7255 16.7L13.4565 16.269C13.4565 16.269 15.8311 16.6709 15.8364 16.6714C16.4824 16.7558 17.2076 16.3934 17.5467 15.8062L18.4776 14.1938C18.8151 13.6091 18.766 12.803 18.3592 12.263C18.2846 12.1573 16.8393 10.4365 16.8393 10.4365C16.8393 10.4365 16.8519 10.146 16.8519 10C16.8519 9.69704 16.8429 9.56952 16.8429 9.56952C16.8429 9.56952 18.2846 7.8427 18.3757 7.71452C18.7679 7.20254 18.8166 6.39338 18.4776 5.80618L17.5467 4.19382C17.2091 3.60908 16.4863 3.24864 15.8151 3.33097C15.6863 3.34276 13.4684 3.72984 13.4684 3.72984ZM10.9423 4.30503L11.0766 4.75439L11.508 4.93843C11.9156 5.11235 12.3007 5.33528 12.6549 5.60181L13.0302 5.88422L13.4872 5.77567C14.151 5.618 15.7116 5.35656 15.8613 5.33828C15.9481 5.32769 16.6964 6.62368 16.6438 6.69352C16.5532 6.81399 15.5466 8.03475 15.0782 8.5308L14.7565 8.8714L14.8124 9.33653C14.8386 9.55534 14.8519 9.77673 14.8519 10C14.8519 10.2233 14.8386 10.4447 14.8124 10.6635L14.7565 11.1286L15.0782 11.4692C15.5466 11.9652 16.5532 13.186 16.6438 13.3065C16.6964 13.3763 15.9126 14.668 15.8613 14.6617C15.7116 14.6434 14.151 14.382 13.4872 14.2243L13.0302 14.1158L12.6549 14.3982C12.3007 14.6647 11.9156 14.8877 11.508 15.0616L11.0766 15.2456L10.9423 15.695C10.747 16.3484 10.1933 17.8297 10.1343 17.9684C10.1001 18.0487 8.60366 18.0487 8.56947 17.9683C8.5105 17.8297 7.95692 16.3484 7.76164 15.6951L7.62731 15.2457L7.1959 15.0616C6.78824 14.8877 6.40322 14.6648 6.04897 14.3983L5.67364 14.1159L5.21666 14.2245C4.55278 14.3822 2.99208 14.6435 2.84241 14.6618C2.75565 14.6724 2.00741 13.3763 2.05996 13.3065C2.15061 13.186 3.15718 11.9654 3.62557 11.4694L3.94723 11.1288L3.89139 10.6637C3.86512 10.4448 3.85186 10.2233 3.85186 10C3.85186 9.77667 3.86512 9.55522 3.89139 9.33635L3.94723 8.87119L3.62557 8.53058C3.15718 8.0346 2.15061 6.81396 2.05996 6.69349C2.00741 6.62365 2.75565 5.32763 2.84241 5.33821C2.99208 5.35647 4.55278 5.61785 5.21666 5.77554L5.67364 5.88408L6.04897 5.6017C6.40322 5.33517 6.78824 5.11226 7.1959 4.93836L7.62731 4.75432L7.76164 4.30495C7.95692 3.65163 8.5105 2.17034 8.56947 2.03168C8.60366 1.9513 10.1001 1.95127 10.1343 2.03164C10.1933 2.1703 10.747 3.65163 10.9423 4.30503ZM9.35186 13C7.69501 13 6.35186 11.6569 6.35186 10C6.35186 8.34315 7.69501 7 9.35186 7C11.0087 7 12.3519 8.34315 12.3519 10C12.3519 11.6569 11.0087 13 9.35186 13ZM10.3519 10C10.3519 10.5523 9.90415 11 9.35186 11C8.79958 11 8.35186 10.5523 8.35186 10C8.35186 9.44771 8.79958 9 9.35186 9C9.90415 9 10.3519 9.44771 10.3519 10Z"
    fill="white"/>
</svg>

<svg
  width="19"
  height="20"
  fill="none"
  xmlns="http://www.w3.org/2000/svg">
  <path
    opacity=".4"
    fill-rule="evenodd"
    clip-rule="evenodd"
    d="m13.468 3.73-.742-.434s-.776-2.11-.842-2.254C11.637.447 10.961 0 10.284 0H8.42c-.675 0-1.349.446-1.613 1.068-.054.118-.821 2.228-.821 2.228l-.734.436s-2.236-.39-2.392-.404c-.64-.084-1.365.279-1.704.866l-.93 1.612a1.813 1.813 0 0 0 .118 1.931c.074.106 1.519 1.835 1.519 1.835s-.012.285-.012.428c0 .303.01.429.01.429S.42 12.157.328 12.285c-.392.512-.44 1.322-.102 1.909l.931 1.612c.338.585 1.06.945 1.731.863.13-.012 2.343-.402 2.343-.402l.745.425s.778 2.122.843 2.265c.247.596.924 1.043 1.602 1.043h1.862c.675 0 1.348-.446 1.613-1.068.054-.117.83-2.232.83-2.232l.73-.431 2.38.402c.646.085 1.372-.278 1.71-.865l.932-1.612a1.813 1.813 0 0 0-.119-1.931c-.074-.106-1.52-1.826-1.52-1.826s.013-.291.013-.437c0-.303-.01-.43-.01-.43s1.443-1.727 1.534-1.855c.392-.512.44-1.322.102-1.909l-.931-1.612a1.813 1.813 0 0 0-1.732-.863c-.129.012-2.347.399-2.347.399Zm-2.526.575.135.45.431.183c.408.174.793.397 1.147.664l.375.282.457-.108c.664-.158 2.225-.42 2.374-.438.087-.01.835 1.286.783 1.356-.09.12-1.097 1.34-1.566 1.837l-.321.34.055.466a5.579 5.579 0 0 1 0 1.327l-.055.465.321.34c.469.496 1.475 1.717 1.566 1.838.052.07-.731 1.361-.783 1.355-.15-.019-1.71-.28-2.374-.438l-.457-.108-.375.282c-.354.267-.74.49-1.147.664l-.431.184-.135.449c-.195.653-.749 2.135-.808 2.273-.034.08-1.53.08-1.565 0-.059-.138-.612-1.62-.807-2.273l-.135-.45-.431-.183a5.494 5.494 0 0 1-1.147-.664l-.375-.282-.457.109c-.664.157-2.225.418-2.375.437-.086.01-.835-1.286-.782-1.356.09-.12 1.097-1.34 1.566-1.837l.321-.34-.056-.465a5.569 5.569 0 0 1 0-1.328l.056-.465-.321-.34C3.157 8.035 2.15 6.814 2.06 6.693c-.053-.07.696-1.365.782-1.355.15.018 1.71.28 2.375.438l.457.108.375-.282c.354-.267.74-.49 1.147-.664l.431-.184.135-.449c.195-.653.749-2.135.807-2.273.035-.08 1.531-.08 1.565 0 .06.138.613 1.62.808 2.273ZM9.352 13a3 3 0 1 1 0-6 3 3 0 0 1 0 6Zm1-3a1 1 0 1 1-2 0 1 1 0 0 1 2 0Z"
    fill="#fff"
  />
</svg>
